coreui/free/cil-gradient.svg

<svg viewBox="0 0 512 512" xmlns="http://www.w3.org/2000/svg"><g><path d="M440 40H72v0c-8.84 0-16 7.16-16 16v400 0c0 8.83 7.16 16 16 16h368v0c8.83 0 16-7.17 16-16V56v0c0-8.84-7.17-16-16-16Zm-16 192h-48v48h48v48h-48v40h-48v-40h-48v40h-48v-40h-48v40h-48v-40H88v-48h48v-48H88V72h336Z"/><path d="M136 280h48v48h-48Z"/><path d="M184 232h48v48h-48Z"/><path d="M232 280h48v48h-48Z"/><path d="M280 232h48v48h-48Z"/><path d="M328 280h48v48h-48Z"/><path d="M136 184h48v48h-48Z"/><path d="M232 184h48v48h-48Z"/><path d="M328 184h48v48h-48Z"/></g></svg>

<svg xmlns="http://www.w3.org/2000/svg" viewBox="0 0 512 512">
  <path fill="var(--ci-primary-color, currentColor)" d="M440,40H72A16,16,0,0,0,56,56V456a16,16,0,0,0,16,16H440a16,16,0,0,0,16-16V56A16,16,0,0,0,440,40ZM424,232H376v48h48v48H376v40H328V328H280v40H232V328H184v40H136V328H88V280h48V232H88V72H424Z" class="ci-primary"/>
  <rect width="48" height="48" x="136" y="280" fill="var(--ci-primary-color, currentColor)" class="ci-primary"/>
  <rect width="48" height="48" x="184" y="232" fill="var(--ci-primary-color, currentColor)" class="ci-primary"/>
  <rect width="48" height="48" x="232" y="280" fill="var(--ci-primary-color, currentColor)" class="ci-primary"/>
  <rect width="48" height="48" x="280" y="232" fill="var(--ci-primary-color, currentColor)" class="ci-primary"/>
  <rect width="48" height="48" x="328" y="280" fill="var(--ci-primary-color, currentColor)" class="ci-primary"/>
  <rect width="48" height="48" x="136" y="184" fill="var(--ci-primary-color, currentColor)" class="ci-primary"/>
  <rect width="48" height="48" x="232" y="184" fill="var(--ci-primary-color, currentColor)" class="ci-primary"/>
  <rect width="48" height="48" x="328" y="184" fill="var(--ci-primary-color, currentColor)" class="ci-primary"/>
</svg>
